Bloom-Colors/scalable/actions/tool-polygon-symbolic.svg

<svg width="16" height="16" version="1.1" xmlns="http://www.w3.org/2000/svg">
<path d="m12.98 2.5-11.025 1.002-0.4551 0.498v10l0.8203 0.385 5.7481-4.7912 5.7086 2.8532 0.719-0.502-1-8.9997zm-0.423 1.043 0.845 7.6-5.1793-2.5903-0.543 0.0625-5.1797 4.3168v-8.475z" fill="#666"/>
<path d="m10 9a2 2 0 0 1-2 2 2 2 0 0 1-2-2 2 2 0 0 1 2-2 2 2 0 0 1 2 2zm-6-5a2 2 0 0 1-2 2 2 2 0 0 1-2-2 2 2 0 0 1 2-2 2 2 0 0 1 2 2zm0 10a2 2 0 0 1-2 2 2 2 0 0 1-2-2 2 2 0 0 1 2-2 2 2 0 0 1 2 2zm12-2a2 2 0 0 1-2 2 2 2 0 0 1-2-2 2 2 0 0 1 2-2 2 2 0 0 1 2 2zm-1-9a2 2 0 0 1-2 2 2 2 0 0 1-2-2 2 2 0 0 1 2-2 2 2 0 0 1 2 2z" fill="#666"/>
</svg>

<svg xmlns="http://www.w3.org/2000/svg" width="16" height="16" version="1.1">
 <path style="fill:#444444" d="M 12.98,2.5 1.9551,3.502 1.5,4 V 14 L 2.3203,14.385 8.0684,9.5938 13.777,12.447 14.496,11.945 13.496,2.9453 Z M 12.557,3.543 13.402,11.143 8.2227,8.5527 7.6797,8.6152 2.5,12.932 V 4.457 Z"/>
 <path style="fill:#444444" d="M 10,9 A 2,2 0 0 1 8,11 2,2 0 0 1 6,9 2,2 0 0 1 8,7 2,2 0 0 1 10,9 Z M 4,4 A 2,2 0 0 1 2,6 2,2 0 0 1 0,4 2,2 0 0 1 2,2 2,2 0 0 1 4,4 Z M 4,14 A 2,2 0 0 1 2,16 2,2 0 0 1 0,14 2,2 0 0 1 2,12 2,2 0 0 1 4,14 Z M 16,12 A 2,2 0 0 1 14,14 2,2 0 0 1 12,12 2,2 0 0 1 14,10 2,2 0 0 1 16,12 Z M 15,3 A 2,2 0 0 1 13,5 2,2 0 0 1 11,3 2,2 0 0 1 13,1 2,2 0 0 1 15,3 Z"/>
</svg>
